X:1
T:Allegro brillante
T:Allegro brillante
T:Dionisio Aguado y García
T:by IMSLP - Pubblico dominio
T:by IMSLP - Pubblico dominio
C:Dionisio Aguado y García
Z:by IMSLP - Pubblico dominio
%%score ( 1 2 3 4 )
L:1/8
Q:1/4=80
M:2/4
K:E
V:1 treble-8 nm="Classical Guitar" snm="Guit."
V:2 treble-8 
V:3 treble-8 
V:4 treble-8 
V:1
!<(! [GBe]2 [FAd]2!<)! | [Ge] z2 z | e/B/e/!1!g/ !4!b(!4!a/4!3!g/4)f/4e/4 | %3
w: |||
 [Ad]2 !3!!2![Ge] f/>e/ | d/4e/4f/4g/4 a/4b/4!1!c'/4d'/4 e'!<(!!4!d'!<)! | %5
w: ||
!>(! (d'/>!>)!c'/)c' z e'/>d'/ | %6
w: |
 (!1!^b/4c'/4)d'/4c'/4 (!1!g/4a/4)=b/4a/4"^I" (^e/4f/4)g/4f/4 c/>!2!f/ |!>(! e2 d!>)!c | %8
w: ||
!<(! e>!<)!!>(!g!>)!!>(! B/>!>)!e/G/>G/ | E z2 A/4B/4!1!c/4d/4 | %10
w: ||
!f!!<(! e/4B/4(!1!c/4d/4) (e/4f/4)!1!g/4a/4 b/4e/4(f/4g/4) (a/4b/4)!1!c'/4d'/4!<)! | %11
w: |
!ff! (e'/4d'/4)e'/4d'/4 (e'/4d'/4)e'/4d'/4 (e'/4d'/4)!>(!(c'/4b/4) a/4g/4f/4e/4!>)! | %12
w: |
 !4!c'2 z/ !3!c'/=d'/c'/ | !4!f7/4f/4 e7/4e/4 | %14
w: ||
"^IV _     _    _    _    _    _    _    _    _    _" [FBd]/!<(! z/ E/4(F/4G/4^A/4) (B/4c/4)d/4e/4 f/4g/4^a/4b/4!<)! | %15
w: |
!>(! !2!=a!4!f ge!>)! |"^VI    _    _    _    _    _" [Fd]!<(! z (B/4c/4)d/4e/4 f/4g/4^a/4b/4!<)! | %17
w: ||
!>(! af ge!>)! | [B,Fd]2!f!"^VII" [Bdfb]2 |!p!"^IV" [DFB]2 z!>(! !0!B/>B/ | %20
w: |||
"_dolce" g2 (!3!f>e)!>)! | e2 z2 | z!<(! ef!<)!a | a7/4f/4 [Fd] B/>B/ | a3 f/>e/ | %25
w: |||||
 e7/4d/4 d/{/d}d/4d/4d/e/ |!<(! f/{/g}f/4e/4f/g/ af!<)! |!>(! ^^f7/4g/4!>)! g !0!B/>B/ | %28
w: |||
!f! !4!b2 (!4!a/g/)(f/e/) | (!2!!1!B/!3!c/)!1!^e/!3!f/ (!1!g/a/)(!3!^b/!4!c'/) | !0!ee g>f | %31
w: |||
!<(! e/"^IV"e/4d/4 (e/4f/4)g/4a/4 (!1!^a/4b/4)(c'/4b/4) (e'/4d'/4)c'/4!4!b/4 | %32
w: |
"^IX" (!2!a/4!3!b/4)a/4b/4 (a/4b/4)f/4b/4 (a/4!<)!b/4)f/4b/4 (a/4b/4)f/4b/4 | %33
w: |
!<(! !1!g/!2!e/4d/4 (e/4f/4)g/4a/4 (^a/4b/4)(c'/4b/4) (e'/4d'/4)c'/4b/4!<)! | %34
w: |
!<(! (a/4b/4)f/4b/4 (a/4b/4)f/4b/4 (a/4b/4)f/4b/4 a/4b/4f/4b/4!<)! | %35
w: |
 g/(!2!e/4d/4)!<(! (!4!f/4e/4)g/4f/4 (a/4g/4)(b/4a/4) (c'/4b/4)=d'/4c'/4!<)! | %36
w: |
 !3!!4![g=d']/!>(!d'/4c'/4 (d'/4c'/4)b/4a/4 (!1!g/4a/4)b/4a/4 !3!g/4f/4e/4=d/4!>)! | %37
w: |
 c2 (A/4G/4)A/4B/4 (!1!c/4=d/4)(c/4d/4) | %38
w: |
 e/4(!1!A/4B/4c/4) (=d/4e/4)f/4g/4 (!1!a/4b/4)(a/4b/4) (!1!c'/4^d'/4)(c'/4d'/4) | %39
w: |
 e'3 !4!d'/!2!c'/ | %40
w: |
!<(! !4!!1![gb]/"^IX"!3!f/4g/4 a/4b/4!1!c'/4d'/4!<)!!>(! !4!e'/!4!b/!1!g/!0!f/!>)! | %41
w: |
 !trill(!Tf7/2 !4!e/4f/4 | e2 z/"_dolce" !3!^^f/g/>e/ | B!^!B!^!B!^!B | %44
w: |||
!<(! !2!=c2!<)!!>(! B/!>)!!3!^^f/g/>e/ | BBBB |!<(! !2!A2!<)!!>(! !1!G!>)!{c^B} c/>d/ | e3 !1!^e | %48
w: ||||
 f/ z/!<(!{g^e} f/g/!<)! b/a/=e/f/ |!f! !4!f/>e/ e2 !4!d | %50
w: ||
!p! e/(!3!g/4f/4) (e/4d/4)c/4B/4 !2!^A/4B/4G/4B/4 =A/4B/4A/4B/4 | %51
w: |
 F/B/4c/4 (d/4e/4)f/4g/4 (a/4f/4)d/4B/4 A/4B/4F/4B/4 | %52
w: |
!p! G/(!3!g/4f/4) (e/4d/4)c/4B/4 !2!^A/4B/4G/4B/4 =A/4B/4G/4B/4 | %53
w: |
!f! F/(B/4c/4) (d/4e/4)f/4g/4 (a/4f/4)d/4B/4 A/4B/4F/4B/4 |!f! G/(g/4f/4) e/4d/4(e/4f/4) g/ z/ z | %55
w: ||
 z/ (!4!c'/4b/4) a/4g/4(a/4b/4) c'2 |!ff! e'3 e'/>e'/ |"^VI" !1!^a!f!a aa |"^VII" b2 b2 | %59
w: ||||
 !4!d'2 d'2 | [ege']z/!4!b/ (!3!^a/!1!b/)g/>e/ | B3 [Ad] | [Ge]z/!4!B/ (!3!^A/B/)(!1!G/>E/) | %63
w: |* * dolce * * *|||
 z B2 [Ad] | [GBe]2 z2 | [egg']2 z2 | [GBe]2 z2 |] %67
w: ||||
V:2
 E2 B,2 | E,/(!2!F,/4G,/4) (A,/4B,/4C/4)D/4!f! E/F/4G/4 A/4B/4c/4d/4 | x4 | B,2 E, z | %4
 z2 z !2!!3![^Bf] | [ce]2 z2 | x4 | z [^A,=G][B,F] z | E2 B,G, | %9
 E,/(!2!F,/4G,/4) (A,/4B,/4C/4)D/4!f! E/F/4G/4 x | x4 | x4 | z [Ac][Ac] z | z [B,Ac] x [^A,=Gc] | %14
 B,/C/4D/4 x3 | !3!D2 E2 | B,/(C/4D/4) (E/4F/4G/4)^A/4 z2 | D2 E2 | x4 | B,2 z2 | E4 | z EB,G, | %22
 E, E DE | B,2 z2 | B,2!f! !2!=C2 | B,4 | C2 F/A/F/A/ | E,2 z2 | E,4 | !0!A,4 | !2!B,2 B,2 | E,4 | %32
 BB BB | !1!e/ x7/2 | BB BB | e/ x7/2 | !1!!2![EB]3 z | A/4(A,/4B,/4C/4) (=D/4E/4F/4!<(!G/4) x2 | %38
 x4!<)! | z !1![^A^^f]3 | !3!B/ z/ z z2 | !1![B,A]4 | [EG]2 z2 | z [EG][EG][EG] | %44
 [DA]2 [EG]/ z/ z | z [EG][EG][EG] | !3!!4![^B,F]2 !4!!2![CE] x | z [CEG][CEG]!2!!1![B,=DG] | %48
 [A,CA]/ z/ z z [^A,E=G] | [B,FA]2 !1![B,FA]2 | [E,G]2 z/ E/F/E/ | D/ z/ z z F/D/ | %52
 E/ z/ z z/ E/F/E/ | D/ z/ x z F/D/ | E/ z/ x z/ [EG]/[FA]/[GB]/ | %55
 !3![Ac]/ z/ z z/!<(! [Ac]/[Ac]/[Bd]/!<)! | !3!=c4 | !2!=C4 | !1!B,B B,B | !1!B,!1!B B,B | %60
 E, z z2 | z !1!B,3 | E, z z2 | B,3 B, | E,2 x2 | E,2 x2 | E2 x2 |] %67
V:3
 x4 | x4 | x4 | x4 | x4 | x4 | x4 | x4 | x4 | x4 | x4 | x4 | x4 | x4 | x4 | %15
 z/4 B/4F/4B/4 F/4B/4F/4B/4 z/4 B/4F/4B/4 F/4B/4F/4B/4 | x4 | %17
 z/4 B/4F/4B/4 F/4B/4F/4B/4 z/4 B/4F/4B/4 F/4B/4F/4B/4 | x4 | x4 | G/B/G/B/ G/B/G/B/ | %21
 G/B/G/B/ G/B/G/B/ | G/B/ G/B/ A/B/ A/B/ | !2!F/A/F/A/ x2 | !3!F/A/F/A/ F/A/ x | %25
 !2!F/A/F/A/ F/A/F/A/ | F/A/F/A/ x2 | E/G/E/G/ E x | !2!G2 z2 | ^A2 z2 | !1!G/B/ G/A/ A/B/ A/B/ | %31
 G2 x2 | x4 | x4 | x4 | x4 | x4 | x4 | x4 | x4 | x4 | x4 | x4 | x4 | x4 | x4 | x4 | x4 | x4 | x4 | %50
 x4 | x4 | x4 | x4 | x4 | x4 | z/4 =g/4e/4g/4 e/4a/4e/4g/4 e/4a/4e/4g/4 e/4g/4e/4g/4 | %57
 z/4 !3!=g/4!4!e/4g/4 e/4g/4e/4g/4 e/4g/4e/4g/4 e/4g/4e/4g/4 | %58
 z/4 !4!g/4!3!e/4g/4 z/4 g/4e/4g/4 z/4 g/4e/4g/4 z/4 g/4e/4g/4 | %59
 z/4 !2!a/4!3!g/4a/4 z/4 a/4g/4a/4 z/4 a/4f/4a/4 z/4 a/4f/4a/4 | x4 | x4 | x4 | x4 | x4 | x4 | %66
 x4 |] %67
V:4
 x4 | x4 | x4 | x4 | x4 | x4 | x4 | x4 | x4 | x4 | x4 | x4 | x4 | x4 | x4 | x4 | x4 | x4 | x4 | %19
 x4 | x4 | x4 | x4 | x4 | x3 F/A/ | x4 | x4 | x4 | x4 | x4 | x4 | x4 | x4 | x4 | x4 | x4 | x4 | %37
 x4 | x4 | x4 | x4 | x4 | x4 | x4 | x4 | x4 | x4 | x4 | x4 | x4 | x4 | x4 | x4 | x4 | x4 | x4 | %56
 x4 | x4 | x4 | x4 | x4 | x4 | x4 | x4 | x4 | x4 | x4 |] %67

